X: 4
T: Missa In myne zin / Agnus Dei
N: Derived from Agr1001d-Missa_In_myne_zin-Agnus.krn
C: Alexander Agricola
%%abc-version 2.0
%%abcx-abcm2ps-target-version 5.9.1 (29 Sep 2008)
%%abc-creator hum2abc beta
%%abcx-conversion-date 2019/02/16 20:17:14
%%abc-edited-by Jesse Rodin
%%abc-edited-by Joel Chapman 2013/09/04
%%abcx-initial-encoding-date 2013/09/04/
%%humdrum-veritas 1190817288
%%humdrum-veritas-data 4173090741
%%linebreak <none>
%%barnumbers 0
L: 1/4
M: 3/1
Q: 1/2=120
%%staves [1 2 3 4]
V: 1 clef=treble
V: 2 clef=treble-8
V: 3 clef=treble-8
V: 4 clef=bass
K: F
[V:1] D12 | 
[V:2] d8f4 | 
[V:3] z12 | 
[V:4] z12 | 
[V:1] A12 | 
[V:2] f3ec2d3c2=B/A/ | 
[V:3] z12 | 
[V:4] z12 | 
[V:1] =B4c8 | 
[V:2] G2d2e2f2e4 | 
[V:3] z12 | 
[V:4] z12 | 
[V:1] d8z4 | 
[V:2] d4z4d4 | 
[V:3] z12 | 
[V:4] z12 | 
[V:1] d6c2=B4 | 
[V:2] =B2G2=B3/c/A2G4 | 
[V:3] z12 | 
[V:4] z12 | 
[V:1] A3G/A/B2A4G2 | 
[V:2] d4d2c2B4 | 
[V:3] z12 | 
[V:4] z12 | 
[V:1] A4z4z4 | 
[V:2] A3G/A/B2A4G2 | 
[V:3] z12 | 
[V:4] D,6C,2B,,4 | 
[V:1] z12 | 
[V:2] A4z4A4 | 
[V:3] z12 | 
[V:4] A,,3B,,C,2D,3E,F,2 | 
[V:1] z12 | 
[V:2] G2Ac2=B/A/=B2A2d2 | 
[V:3] z12 | 
[V:4] E,2A,4G,2F,3E,/D,/ | 
[V:1] z12 | 
[V:2] e2f3ed4^c2 | 
[V:3] z12 | 
[V:4] C,2D,2F,2G,2E,4 | 
[V:1] z4A2=B2A2dd- | 
[V:2] d2=B2A2dd2cf2 | 
[V:3] z12 | 
[V:4] D,8z2D,2 | 
[V:1] dcd4G2F2G2 | 
[V:2] zefd2=B2cd2G2- | 
[V:3] z12 | 
[V:4] E,2D,2G,3F,/E,/D,2E,2 | 
[V:1] E3F2ED4^C2 | 
[V:2] G2A2D2F2E4 | 
[V:3] z12 | 
[V:4] C,2A,,2D,4A,,4 | 
[V:1] D4z4d4 | 
[V:2] D4A4=B4 | 
[V:3] D12 | 
[V:4] D,4z4z4 | 
[V:1] c4c3=BA4 | 
[V:2] c3de8- | 
[V:3] A12 | 
[V:4] A,,12 | 
[V:1] G4G2G4FE | 
[V:2] e12 | 
[V:3] =B6c6 | 
[V:4] E,8E,4 | 
[V:1] F4A4=B4 | 
[V:2] A6d3c=B2 | 
[V:3] d12 | 
[V:4] D,4F,4G,4 | 
[V:1] c3=BAGG4^F2 | 
[V:2] A4z4d4 | 
[V:3] c6=B2A4 | 
[V:4] A,2F,4G,2D,4 | 
[V:1] G8z4 | 
[V:2] d6c2=B4 | 
[V:3] G12 | 
[V:4] G,,4z4G,4 | 
[V:1] z12 | 
[V:2] A3G/A/=BAd4^c2 | 
[V:3] z12 | 
[V:4] F,2D,2G,2F,2E,4 | 
[V:1] F8F4 | 
[V:2] d2A2B2A2F3E/D/ | 
[V:3] d12 | 
[V:4] D,4z2D,3C,B,,2 | 
[V:1] c4=B2A4^G2 | 
[V:2] E2F2G2E2z2e2- | 
[V:3] c2A2d2c2=B4 | 
[V:4] A,,4G,,2A,,2E,4 | 
[V:1] A2c3=BAGF4 | 
[V:2] e2f2e2f3ed2 | 
[V:3] A12 | 
[V:4] A,,4A,,2D,3C,D,2 | 
[V:1] E2C2D2E2FA2G | 
[V:2] c2A2=B2cedcB2 | 
[V:3] z12 | 
[V:4] A,,4z2C,2D,2_E,2 | 
[V:1] A2c3=BG2F2D2 | 
[V:2] A2G2E4F4 | 
[V:3] z4z2G2A2=B2 | 
[V:4] F,2C,4E,2D,4 | 
[V:1] E2A3GF4E2 | 
[V:2] G2F2A4G4 | 
[V:3] c8c4 | 
[V:4] C,2F,3E,F,2C,4 | 
[V:1] FDE2F2G2C2C2- | 
[V:2] F2c2A2B2A4 | 
[V:3] A6G2E2F2 | 
[V:4] D,2C,2D,2G,,2A,,2F,,2 | 
[V:1] C2=B,2C4G4 | 
[V:2] G4E2G4E2- | 
[V:3] D4C8 | 
[V:4] G,,4G,2E,3F,G,2 | 
[V:1] E3FG2A2G2c2 | 
[V:2] E2c4c2c4 | 
[V:3] G4E3FG2A2 | 
[V:4] C,12 | 
[V:1] =B2A2G2F3EE2 | 
[V:2] d2e2d4c3=B | 
[V:3] G2c2=B2A4G2 | 
[V:4] z4z2D,2A,,2C,2 | 
[V:1] DCD2E3FG4 | 
[V:2] AGA2=B4G4 | 
[V:3] F4E4z2=B2 | 
[V:4] D,4G,3F,E,D,E,2 | 
[V:1] F4z4z4 | 
[V:2] A4G2FDE2D2 | 
[V:3] d3c=B2A2G3F | 
[V:4] D,4E,2F,2C,2B,,2 | 
[V:1] z4G3F/G/A2G2- | 
[V:2] Cc2=Bc4A2d2- | 
[V:3] E2D2C4c2=B2 | 
[V:4] C,2G,,2G,2E,2F,2G,2 | 
[V:1] G2F2G3F/E/DCF2- | 
[V:2] d2d2B2G2d2c2- | 
[V:3] A4G2B4A2 | 
[V:4] D,4_E,3D,/C,/B,,2F,2 | 
[V:1] F2E2F2E3DD2- | 
[V:2] c=Bc2A=Bc3=BAG | 
[V:3] G4F2G2E2F2 | 
[V:4] C,4D,2C,4D,2 | 
[V:1] D2^C2D8 ||  
[V:2] A4A8 ||  
[V:3] E4D8 ||  
[V:4] A,,4D,8 ||  
[V:1]  [K:F] [K:clef=treble][M:2/1]D8- | 
[V:2]  [K:F] [K:clef=treble-8][M:2/1]f6ed | 
[V:3]  [K:F] [K:clef=treble-8][M:2/1]z8 | 
[V:4]  [K:F] [K:clef=bass][M:2/1]z8 | 
[V:1] D8 | 
[V:2] fgaba2f2 | 
[V:3] z8 | 
[V:4] z8 | 
[V:1] A8- | 
[V:2] z8 | 
[V:3] F6ED | 
[V:4] z8 | 
[V:1] A8 | 
[V:2] z8 | 
[V:3] FGA=Bc2F2 | 
[V:4] z8 | 
[V:1] =B8- | 
[V:2] z2g4fe | 
[V:3] G8 | 
[V:4] z8 | 
[V:1] B4c4- | 
[V:2] d2g2e2f2 | 
[V:3] z8 | 
[V:4] z8 | 
[V:1] c8 | 
[V:2] e2a2z4 | 
[V:3] E2F2E2A2 | 
[V:4] z8 | 
[V:1] d8- | 
[V:2] (3d2e2f2(3g2f2g2 | 
[V:3] D4z4 | 
[V:4] z8 | 
[V:1] d8- | 
[V:2] (3f2g2a2(3b2a2b2 | 
[V:3] (3D2E2F2(3G2F2G2 | 
[V:4] z8 | 
[V:1] d8 | 
[V:2] (3:2:1g2b2(3aa4g2 | 
[V:3] (3:2:4D2G4F2B4 | 
[V:4] z8 | 
[V:1] c8- | 
[V:2] a4z2a2- | 
[V:3] A2G2E2F2- | 
[V:4] z8 | 
[V:1] c8 | 
[V:2] age2f2e2- | 
[V:3] F2G2A4 | 
[V:4] z8 | 
[V:1] =B8- | 
[V:2] efg3fd2 | 
[V:3] G8 | 
[V:4] z8 | 
[V:1] B8 | 
[V:2] e2d4g2- | 
[V:3] z4G4 | 
[V:4] z8 | 
[V:1] A4=B2c2- | 
[V:2] g2f2g2a2 | 
[V:3] D4G2F2 | 
[V:4] z8 | 
[V:1] c=BAGFEA2- | 
[V:2] g2c'3=bag | 
[V:3] E2F6- | 
[V:4] z8 | 
[V:1] AGG4F2 | 
[V:2] f2e3dd2- | 
[V:3] F2C2D4 | 
[V:4] z8 | 
[V:1] G4F4 | 
[V:2] d2c2d2fe | 
[V:3] E4D4 | 
[V:4] z8 | 
[V:1] z4z2D2 | 
[V:2] dcc4=B2 | 
[V:3] F2E2D4 | 
[V:4] z8 | 
[V:1] E3FG4- | 
[V:2] c4z4 | 
[V:3] [M:3/3](3:2:5C4D2E2F2G2 | 
[V:4] z8 | 
[V:1] G8 | 
[V:2] z8 | 
[V:3] (3E2G2A2(3=B2c2=B2 | 
[V:4] z8 | 
[V:1] F4E4 | 
[V:2] z8 | 
[V:3] (3:2:6d4A2c3=B A G | 
[V:4] z8 | 
[V:1] z2A4GF | 
[V:2] z8 | 
[V:3] [M:2/1]F3GA2B2 | 
[V:4] z8 | 
[V:1] E4D4 | 
[V:2] z8 | 
[V:3] G2c3B/c/BA/G/ | 
[V:4] z8 | 
[V:1] A3=Bc2d2- | 
[V:2] f3ga2b2 | 
[V:3] F2D2C2B,2- | 
[V:4] z8 | 
[V:1] dcA2B4 | 
[V:2] g2a3gg2- | 
[V:3] B,2F2E2G2 | 
[V:4] z8 | 
[V:1] A4z4 | 
[V:2] g2^f2g4 | 
[V:3] D4z2G2 | 
[V:4] z8 | 
[V:1] z8 | 
[V:2] z2g2a2=b2 | 
[V:3] A2=B2c2G2 | 
[V:4] z8 | 
[V:1] z8 | 
[V:2] c'4a4- | 
[V:3] A3=Bcdc2- | 
[V:4] z8 | 
[V:1] z8 | 
[V:2] a2g2f2e2 | 
[V:3] c2=B2A2G2- | 
[V:4] z8 | 
[V:1] z8 | 
[V:2] d4c4 | 
[V:3] G2F2E4 | 
[V:4] z8 | 
[V:1] z2A2=B2c2 | 
[V:2] f4e4 | 
[V:3] D4z2A2 | 
[V:4] z8 | 
[V:1] d8 | 
[V:2] d3ef2g2- | 
[V:3] =B3cd2G2 | 
[V:4] z8 | 
[V:1] d4=B3A | 
[V:2] g2^f2g4 | 
[V:3] d4G4 | 
[V:4] z8 | 
[V:1] =B2A2G2F2 | 
[V:2] z8 | 
[V:3] d3c=BAd2- | 
[V:4] z8 | 
[V:1] E4D4 | 
[V:2] z8 | 
[V:3] d2c2d2=B2 | 
[V:4] z8 | 
[V:1] z8 | 
[V:2] a3ga2g2 | 
[V:3] c3=Bc2=B2 | 
[V:4] z8 | 
[V:1] z8 | 
[V:2] f2e2dcd2 | 
[V:3] A2G2F4 | 
[V:4] z8 | 
[V:1] G8 | 
[V:2] e4z4 | 
[V:3] E4C2C2- | 
[V:4] z8 | 
[V:1] E8 | 
[V:2] g3a=b2c'2- | 
[V:3] CDEFG2C2 | 
[V:4] z8 | 
[V:1] A8 | 
[V:2] c'=bagf3g | 
[V:3] F4z4 | 
[V:4] z8 | 
[V:1] F8 | 
[V:2] aga4gf | 
[V:3] z4D4 | 
[V:4] z8 | 
[V:1] c6=BA | 
[V:2] e4d4- | 
[V:3] C4G4- | 
[V:4] z8 | 
[V:1] =BAGFE2A2- | 
[V:2] d4c4 | 
[V:3] G4A4 | 
[V:4] z8 | 
[V:1] A2GFA2G2 | 
[V:2] c'6=b2 | 
[V:3] F4z4 | 
[V:4] z8 | 
[V:1] F2G3FD2 | 
[V:2] a2=b3ad'2- | 
[V:3] z8 | 
[V:4] z8 | 
[V:1] E4D4 | 
[V:2] d'2c'2d'2=b2 | 
[V:3] A4B2G2 | 
[V:4] z8 | 
[V:1] z2=B2A2G2 | 
[V:2] a2g2c'2=b2 | 
[V:3] F2E2F2G2 | 
[V:4] z8 | 
[V:1] c2=B2A2d2 | 
[V:2] a2d'2c'2=b2 | 
[V:3] F2G2A2=B2 | 
[V:4] z8 | 
[V:1] c2d4c2 | 
[V:2] a2g2f2e2 | 
[V:3] c2G2A4 | 
[V:4] z8 | 
[V:1] d2=B2A2d2- | 
[V:2] d2g4f2 | 
[V:3] BAGFG2D2 | 
[V:4] z8 | 
[V:1] d2^c2d4- | 
[V:2] e4d4- | 
[V:3] A4D4 | 
[V:4] z8 | 
[V:1] d2c=BA2_B2- | 
[V:2] d8- | 
[V:3] G4F2G2- | 
[V:4] z8 | 
[V:1] BABAF3G | 
[V:2] d8- | 
[V:3] GFG2D3E | 
[V:4] z8 | 
[V:1] A2B2A3F | 
[V:2] d8- | 
[V:3] F2G2D4- | 
[V:4] z8 | 
[V:1] F8 ||  
[V:2] d8 ||  
[V:3] D8 ||  
[V:4] z8 ||  
[V:1]  [K:F] [K:clef=treble][M:3/1]z12 | 
[V:2]  [K:F] [K:clef=treble-8][M:3/1]z12 | 
[V:3]  [K:F] [K:clef=treble-8][M:3/1]D12 | 
[V:4]  [K:F] [K:clef=bass][M:3/1]z12 | 
[V:1] D12 | 
[V:2] z12 | 
[V:3] G3A=B2=B3AGF | 
[V:4] z12 | 
[V:1] G3A=B2B3AGF | 
[V:2] z12 | 
[V:3] E4G6A=B | 
[V:4] z12 | 
[V:1] E4G6A=B | 
[V:2] z12 | 
[V:3] c3=B/c/=BAc2=B4 | 
[V:4] z12 | 
[V:1] c3=B/c/BAA4^G2 | 
[V:2] z12 | 
[V:3] A4d2c2=B4 | 
[V:4] z12 | 
[V:1] A4z4A4 | 
[V:2] z12 | 
[V:3] A8z4 | 
[V:4] z12 | 
[V:1] c6=BAG3A | 
[V:2] z12 | 
[V:3] A4c6=BA | 
[V:4] z12 | 
[V:1] =B2A4G2FEFG | 
[V:2] z12 | 
[V:3] G2FEFGE2D2d2 | 
[V:4] z12 | 
[V:1] E2D2F4E4 | 
[V:2] z12 | 
[V:3] c2d2A2d3^c^c=B | 
[V:4] z12 | 
[V:1] D4z2G2F2G2 | 
[V:2] z12 | 
[V:3] d4G4A2G2 | 
[V:4] z12 | 
[V:1] D2G3^FFEG4 | 
[V:2] z12 | 
[V:3] =B2c2A4G4 | 
[V:4] z12 | 
[V:1] C4D2C2E2F2 | 
[V:2] z12 | 
[V:3] z2A2=B2c4d2 | 
[V:4] z12 | 
[V:1] G4A2G2=B2c2 | 
[V:2] z12 | 
[V:3] =B2c3de2d3/c/A2 | 
[V:4] z12 | 
[V:1] d2G4c4=B2 | 
[V:2] z12 | 
[V:3] GA=BA/=B/c=Be2d4 | 
[V:4] z12 | 
[V:1] c8z4 | 
[V:2] z12 | 
[V:3] c4z4d4 | 
[V:4] z12 | 
[V:1] G4A4G2F2 | 
[V:2] z12 | 
[V:3] e4d2c2=B2d2 | 
[V:4] z12 | 
[V:1] E2G2F2E2DEFG | 
[V:2] z12 | 
[V:3] c2=B2A=Bcd=B2A2 | 
[V:4] z12 | 
[V:1] E2D2C2E2D4 | 
[V:2] z12 | 
[V:3] G2=B2AGc4=B2 | 
[V:4] z12 | 
[V:1] C2F2G2A4^G2 | 
[V:2] z12 | 
[V:3] c2dc=BAc2=B4 | 
[V:4] z12 | 
[V:1] A8z4 | 
[V:2] z12 | 
[V:3] A8z4 | 
[V:4] z12 | 
[V:1] [M:2/1]A8- | 
[V:2] [M:2/1]f8- | 
[V:3] [M:2/1]d8- | 
[V:4] [M:2/1]D,8- | 
[V:1] A4A4 | 
[V:2] f4f4 | 
[V:3] d4A2d2- | 
[V:4] D,4D,4 | 
[V:1] A8- | 
[V:2] f8 | 
[V:3] d2c=BA3=B | 
[V:4] D,8 | 
[V:1] A8 | 
[V:2] e8- | 
[V:3] c8- | 
[V:4] A,,8 | 
[V:1] G4c4 | 
[V:2] e8 | 
[V:3] c4G4- | 
[V:4] C,6B,,A,, | 
[V:1] =B4A4- | 
[V:2] e4f4- | 
[V:3] G4A4 | 
[V:4] G,,4F,,4- | 
[V:1] A4G4 | 
[V:2] f2ede2c2- | 
[V:3] c6=B2 | 
[V:4] F,,4C,4 | 
[V:1] F4E4- | 
[V:2] c=BA=Bc4 | 
[V:3] A2GFG2A2- | 
[V:4] D,4C,4 | 
[V:1] E2D2D4- | 
[V:2] A8- | 
[V:3] AGFEF4 | 
[V:4] D,8 | 
[V:1] D2C=B,C4 | 
[V:2] A8 | 
[V:3] E8- | 
[V:4] A,,8- | 
[V:1] C8- | 
[V:2] A8- | 
[V:3] E8 | 
[V:4] A,,8 | 
[V:1] C8 | 
[V:2] A8 | 
[V:3] F4E4 | 
[V:4] z4A,,4 | 
[V:1] F6ED | 
[V:2] F4G4 | 
[V:3] D4d2d2- | 
[V:4] B,,8 | 
[V:1] E4D2F2- | 
[V:2] A8 | 
[V:3] d2c2d4 | 
[V:4] A,,4D,4 | 
[V:1] F2G2A3=B | 
[V:2] d4c4- | 
[V:3] B4A4- | 
[V:4] D,3E,F,4 | 
[V:1] c2=B3Ad2- | 
[V:2] c2d2e2f2 | 
[V:3] A2G3FD2 | 
[V:4] z8 | 
[V:1] d2c2=B2A2- | 
[V:2] e3fg2c2 | 
[V:3] A4G2A2 | 
[V:4] z8 | 
[V:1] A2GFG4 | 
[V:2] d2f4e2 | 
[V:3] F4c4 | 
[V:4] D,4C,4 | 
[V:1] FGAG/A/B2F2 | 
[V:2] f4d3c/d/ | 
[V:3] F4F4 | 
[V:4] D,4B,,C,D,_E, | 
[V:1] GABcA2G2- | 
[V:2] e2d3cc2- | 
[V:3] E2FGA=Bc2 | 
[V:4] C,2B,,2F,2C,2 | 
[V:1] GFF4E2 | 
[V:2] c2=B2c4 | 
[V:3] A2F2G4 | 
[V:4] D,4C,4 | 
[V:1] F4A4- | 
[V:2] A4d4- | 
[V:3] F4D4 | 
[V:4] D,4F,4 | 
[V:1] A2G2G4- | 
[V:2] d2^c=B^c4 | 
[V:3] G8 | 
[V:4] E,8 | 
[V:1] G2^FEF4 | 
[V:2] d6c2 | 
[V:3] A8 | 
[V:4] D,8 | 
[V:1] G8 | 
[V:2] =B3A=B4 | 
[V:3] G4E4 | 
[V:4] z4G,4 | 
[V:1] c4=B4 | 
[V:2] A4z2e2- | 
[V:3] F4G4 | 
[V:4] A,4G,2E,2 | 
[V:1] A6GF | 
[V:2] e2dcd4 | 
[V:3] z4A4 | 
[V:4] F,3E,F,4 | 
[V:1] G8- | 
[V:2] e8- | 
[V:3] =B6A=B | 
[V:4] E,6C,2 | 
[V:1] G8- | 
[V:2] e8- | 
[V:3] c6=BA | 
[V:4] C,8- | 
[V:1] G8- | 
[V:2] e8- | 
[V:3] G4c3=B | 
[V:4] C,8- | 
[V:1] G8 ||  
[V:2] e8 ||  
[V:3] c8 ||  
[V:4] C,8 ||  
[V:1]  [K:F] [K:clef=treble][M:2/1]z8 | 
[V:2]  [K:F] [K:clef=treble-8][M:2/1]D4DEFG | 
[V:3]  [K:F] [K:clef=treble-8][M:2/1]z8 | 
[V:4]  [K:F] [K:clef=bass][M:2/1]z8 | 
[V:1] z8 | 
[V:2] A2F3GA2 | 
[V:3] D4DEFG | 
[V:4] z8 | 
[V:1] z8 | 
[V:2] D8 | 
[V:3] A2F3GA2 | 
[V:4] z8 | 
[V:1] z8 | 
[V:2] z2A2=B2c2 | 
[V:3] D4z2A2 | 
[V:4] z8 | 
[V:1] D4DEFG | 
[V:2] d2G2B3A | 
[V:3] =B3cd4- | 
[V:4] z8 | 
[V:1] A2F3GA2 | 
[V:2] F2D3EF2 | 
[V:3] d4d4 | 
[V:4] z8 | 
[V:1] D4z2A2 | 
[V:2] G2d2e2f2 | 
[V:3] =B4A4 | 
[V:4] z8 | 
[V:1] =B2c2d4- | 
[V:2] e4d4 | 
[V:3] G2A2=B3c | 
[V:4] z8 | 
[V:1] d4d4 | 
[V:2] G4z2d2 | 
[V:3] dc=BA=B4 | 
[V:4] z8 | 
[V:1] c6=B2 | 
[V:2] e2f2e2e2- | 
[V:3] A6G2 | 
[V:4] z8 | 
[V:1] A4G2A2- | 
[V:2] eddc/d/e2c2 | 
[V:3] F4E2F2 | 
[V:4] z8 | 
[V:1] AGG4^F2 | 
[V:2] =B2c2A4 | 
[V:3] G2C2D4 | 
[V:4] z8 | 
[V:1] G4z4 | 
[V:2] G4=B3c | 
[V:3] z2d4e2 | 
[V:4] G,,8- | 
[V:1] G6d2- | 
[V:2] d2G3A=Bc | 
[V:3] d2=B3cd2 | 
[V:4] G,,8 | 
[V:1] dc=BA_B2A2 | 
[V:2] d8 | 
[V:3] G6A2- | 
[V:4] G,,6D,2- | 
[V:1] F2A3GFE | 
[V:2] d4f4- | 
[V:3] AGFED4 | 
[V:4] D,8- | 
[V:1] D4z4 | 
[V:2] f8- | 
[V:3] z2d4c=B | 
[V:4] D,6D,2- | 
[V:1] A4G3A | 
[V:2] f4e4 | 
[V:3] A2d2=B2c2 | 
[V:4] D,4E,4- | 
[V:1] =B2c2G4 | 
[V:2] E3FG2C2- | 
[V:3] G3A=B2c2 | 
[V:4] E,8- | 
[V:1] z4G4 | 
[V:2] CDEFG4 | 
[V:3] G3FEDC2- | 
[V:4] E,4E,4 | 
[V:1] G2A3=Bc2- | 
[V:2] c3=BAGF2- | 
[V:3] C2c4A2- | 
[V:4] F,8- | 
[V:1] c2A4d2 | 
[V:2] FEFGA2D2 | 
[V:3] A2d2c2d2 | 
[V:4] F,8- | 
[V:1] c2d2A2c2 | 
[V:2] z2D2A4 | 
[V:3] A2d2c2A2 | 
[V:4] F,2F,6 | 
[V:1] =B2d4G2- | 
[V:2] G2=B3A=B2 | 
[V:3] dc=BAGFE2- | 
[V:4] G,8- | 
[V:1] G2FED2E2 | 
[V:2] G3A=B2E2 | 
[V:3] E2DC=B,2C2 | 
[V:4] G,8 | 
[V:1] D2G4A2- | 
[V:2] =B4=B2A2- | 
[V:3] =B,2E4F2 | 
[V:4] G,6F,2- | 
[V:1] A2F3GA2 | 
[V:2] A2d3cA2 | 
[V:3] D4z2D2- | 
[V:4] F,8- | 
[V:1] (3D2F2G2A3G | 
[V:2] d4d4- | 
[V:3] DEF2D2F2- | 
[V:4] F,6F,2- | 
[V:1] A=Bc4B2- | 
[V:2] d2c3de2- | 
[V:3] F2C2G3F | 
[V:4] F,4E,4- | 
[V:1] BAG3FE2- | 
[V:2] efg3fed | 
[V:3] EDC4C2- | 
[V:4] E,8- | 
[V:1] EDC4G2- | 
[V:2] c2e3dc=B | 
[V:3] C2G4E2 | 
[V:4] E,4E,4- | 
[V:1] G2F4ED | 
[V:2] c2d3cA2- | 
[V:3] G2A3GFE | 
[V:4] E,2D,6- | 
[V:1] F4z2F2- | 
[V:2] AGFED2d2- | 
[V:3] D2F3GAB | 
[V:4] D,8- | 
[V:1] FGA4GF | 
[V:2] d2c=BA3=B | 
[V:3] A2F2F3E/F/ | 
[V:4] D,2D,6 | 
[V:1] E2G4FE | 
[V:2] c4G3A | 
[V:3] G2E3FG2- | 
[V:4] C,8 | 
[V:1] D2C2D4 | 
[V:2] =B2c4=B2 | 
[V:3] G2E2F2G2 | 
[V:4] z8 | 
[V:1] E8 | 
[V:2] c8 | 
[V:3] C6C2- | 
[V:4] G,8 | 
[V:1] z8 | 
[V:2] z8 | 
[V:3] CDEFE2F2 | 
[V:4] G,6F,2- | 
[V:1] z8 | 
[V:2] z8 | 
[V:3] D2A3=Bcd | 
[V:4] F,6F,2- | 
[V:1] z8 | 
[V:2] z8 | 
[V:3] c2d2[M:3/3](3:2:2G4c2 | 
[V:4] F,4E,4- | 
[V:1] z8 | 
[V:2] z8 | 
[V:3] (3:2:5=B2c2=B2G4G2 | 
[V:4] E,4E,4- | 
[V:1] z8 | 
[V:2] z8 | 
[V:3] (3:2:5=B3cd2-d2A4 | 
[V:4] E,2D,6- | 
[V:1] z8 | 
[V:2] z8 | 
[V:3] (3B2A2F2-(3F2A3=B | 
[V:4] D,2D,6 | 
[V:1] z8 | 
[V:2] e4[M:3/3](3:2:4d2c2=B A | 
[V:3] [M:2/1]c4z4 | 
[V:4] C,8 | 
[V:1] z8 | 
[V:2] (3:2:5G2A2E2A4=B2 | 
[V:3] z8 | 
[V:4] C,6D,2- | 
[V:1] z8 | 
[V:2] (3:2:5A2d3ef2d4 | 
[V:3] z8 | 
[V:4] D,6D,2- | 
[V:1] z4[M:3/3](3:2:1A6 | 
[V:2] (3f3ed2c4 | 
[V:3] z8 | 
[V:4] D,4F,4- | 
[V:1] (3:2:5G2A2=B2c4A2 | 
[V:2] [M:2/1]z8 | 
[V:3] z8 | 
[V:4] F,4F,4- | 
[V:1] (3:2:4c4c2-c2=B4 | 
[V:2] z8 | 
[V:3] z8 | 
[V:4] F,2E,6- | 
[V:1] (3:2:7G2G3F E D^C3=B, | 
[V:2] z8 | 
[V:3] z8 | 
[V:4] E,2E,6 | 
[V:1] [M:2/1]D2F3GAB | 
[V:2] A4B3A | 
[V:3] z2d4cB | 
[V:4] D,8- | 
[V:1] A2G4^F2 | 
[V:2] d8 | 
[V:3] cBAGA4 | 
[V:4] D,8 | 
[V:1] G3F/E/D2C2- | 
[V:2] =B3cd2e2 | 
[V:3] G3AB2A2- | 
[V:4] z8 | 
[V:1] C2F4E2 | 
[V:2] c3A/=B/c3=B | 
[V:3] AGF2G4 | 
[V:4] z4C,4 | 
[V:1] F4z4 | 
[V:2] AGF2G3F/E/ | 
[V:3] F2D2C4 | 
[V:4] D,4E,4 | 
[V:1] z8 | 
[V:2] D8 | 
[V:3] B,8 | 
[V:4] F,8- | 
[V:1] z8 | 
[V:2] [M:3/3](3A2=B2c2(3d2c2d2 | 
[V:3] z8 | 
[V:4] F,8 | 
[V:1] z8 | 
[V:2] (3G2A2=B2(3c2=B2c2 | 
[V:3] z8 | 
[V:4] E,8 | 
[V:1] z8 | 
[V:2] [M:2/1]F3G/A/B2A2- | 
[V:3] z8 | 
[V:4] D,6C,2 | 
[V:1] z8 | 
[V:2] ADG4^F2 | 
[V:3] z8 | 
[V:4] D,2C,B,,A,,4 | 
[V:1] z8 | 
[V:2] G6A2 | 
[V:3] z8 | 
[V:4] G,,4C,3D, | 
[V:1] z8 | 
[V:2] G2c4=B2 | 
[V:3] z8 | 
[V:4] E,2F,2D,4 | 
[V:1] G4A2=B2 | 
[V:2] c4z4 | 
[V:3] e4d4 | 
[V:4] C,4z4 | 
[V:1] c8 | 
[V:2] z8 | 
[V:3] c2A3=Bc2 | 
[V:4] z8 | 
[V:1] c4A4- | 
[V:2] z8 | 
[V:3] A2F3GA=B | 
[V:4] z8 | 
[V:1] A2G2F2E2 | 
[V:2] z8 | 
[V:3] cde2d2c2- | 
[V:4] z8 | 
[V:1] D4C4- | 
[V:2] z8 | 
[V:3] c2=B2c4 | 
[V:4] z8 | 
[V:1] C4C2D2- | 
[V:2] z8 | 
[V:3] A6G2 | 
[V:4] z8 | 
[V:1] DCC4=B,2 | 
[V:2] z8 | 
[V:3] F2E2D4 | 
[V:4] z8 | 
[V:1] C4G4 | 
[V:2] e3dc=Bc2- | 
[V:3] C8- | 
[V:4] z8 | 
[V:1] E4E4 | 
[V:2] c2=BAG2E2- | 
[V:3] C8 | 
[V:4] z4C,4 | 
[V:1] A6G2 | 
[V:2] E2F2E2C2 | 
[V:3] z4c4 | 
[V:4] A,,4A,,4 | 
[V:1] F6E2 | 
[V:2] D2F3GA2 | 
[V:3] A4A4 | 
[V:4] D,6C,2 | 
[V:1] D2F3GE2 | 
[V:2] B4z4 | 
[V:3] d6c2 | 
[V:4] B,,3A,,B,,2C,2 | 
[V:1] D2G4^F2 | 
[V:2] d8 | 
[V:3] B4A4 | 
[V:4] G,,4D,4 | 
[V:1] G4z4 | 
[V:2] =B2c2A4 | 
[V:3] G4F4 | 
[V:4] E,2C,2D,4 | 
[V:1] G4F4- | 
[V:2] G4A4 | 
[V:3] =B4A2d2- | 
[V:4] G,,4D,3C, | 
[V:1] F2E2D4 | 
[V:2] BAGFG4- | 
[V:3] d2c3=B=BA | 
[V:4] B,,2C,2G,,4 | 
[V:1] C4G4 | 
[V:2] G4E4 | 
[V:3] c8- | 
[V:4] C,6D,E, | 
[V:1] A4B4- | 
[V:2] A3GFED2- | 
[V:3] c4d4- | 
[V:4] F,4B,,4- | 
[V:1] B4A4- | 
[V:2] D2G2F3G | 
[V:3] d4z4 | 
[V:4] B,,2C,2D,2E,2 | 
[V:1] A2G2F4 | 
[V:2] A4B2d2 | 
[V:3] z4D4 | 
[V:4] F,4B,,4 | 
[V:1] G4E4 | 
[V:2] _e2d4^c2 | 
[V:3] G4A4 | 
[V:4] z8 | 
[V:1] D6E2 | 
[V:2] d8- | 
[V:3] B8 | 
[V:4] B,,6A,,G,, | 
[V:1] F4E4 | 
[V:2] d4c4 | 
[V:3] A6G2 | 
[V:4] F,,4A,,4 | 
[V:1] D2F2_E2D2- | 
[V:2] B8 | 
[V:3] F4G4 | 
[V:4] B,,4G,,4 | 
[V:1] D2^C=B,C4 | 
[V:2] A8- | 
[V:3] E8 | 
[V:4] A,,8 | 
[V:1] D8 |]  
[V:2] A8 |]  
[V:3] D8 |]  
[V:4] D,8 |]  



